overrides/.icons/wp/halberd.svg

<?xml version="1.0" encoding="UTF-8" standalone="no"?>
<svg
   width="24"
   height="24"
   version="1.1"
   viewBox="0 0 26.181818 26.181818"
   id="svg1"
   sodipodi:docname="halberd.svg"
   inkscape:version="1.3.2 (091e20e, 2023-11-25, custom)"
   xmlns:inkscape="http://www.inkscape.org/namespaces/inkscape"
   xmlns:sodipodi="http://sodipodi.sourceforge.net/DTD/sodipodi-0.dtd"
   xmlns="http://www.w3.org/2000/svg"
   xmlns:svg="http://www.w3.org/2000/svg">
  <defs
     id="defs1" />
  <sodipodi:namedview
     id="namedview1"
     pagecolor="#ffffff"
     bordercolor="#111111"
     borderopacity="1"
     inkscape:showpageshadow="0"
     inkscape:pageopacity="0"
     inkscape:pagecheckerboard="1"
     inkscape:deskcolor="#d1d1d1"
     inkscape:zoom="9.8863636"
     inkscape:cx="10.570115"
     inkscape:cy="13.806897"
     inkscape:window-width="1366"
     inkscape:window-height="697"
     inkscape:window-x="-8"
     inkscape:window-y="-8"
     inkscape:window-maximized="1"
     inkscape:current-layer="svg1" />
  <path
     d="m 23.014046,2.6726875 -2.663798,0.888049 -1.24768,1.8656403 c 0.05806,0.043091 0.114374,0.089202 0.166785,0.1416074 l 0.849278,0.8492342 c 0.05231,0.052305 0.09816,0.1088341 0.141191,0.1667748 L 22.126444,5.3363784 Z M 9.8525844,5.7833244 C 9.2316571,5.7763796 8.6496754,5.9812405 8.2205746,6.4103172 L 12.51311,10.702416 14.288881,8.9263395 12.197464,6.8350543 C 11.513809,6.1514429 10.651004,5.7921608 9.8526499,5.7832371 Z M 18.18849,5.9936049 c -0.167679,0 -0.335304,0.064013 -0.463247,0.1919401 -0.179717,0.1811901 -0.238147,0.4504827 -0.149296,0.6896987 L 2.1818176,22.223991 l 0.00128,1.28344 1.2826768,0.0017 L 18.811685,8.110422 c 0.239238,0.088852 0.508127,0.030845 0.689328,-0.1488598 0.255863,-0.2558634 0.255863,-0.6710004 0,-0.9268638 L 18.651735,6.1854642 c -0.127934,-0.1279251 -0.295573,-0.19194 -0.463247,-0.19194 z m 0.281521,3.6938406 -5.196031,5.1955955 c 1.438132,1.92516 1.704861,4.177988 0.515283,5.367523 -0.01911,0.01911 -0.03964,0.03623 -0.05929,0.0546 2.70198,0.424039 5.544033,-0.541029 7.585573,-2.576307 2.041736,-2.04191 3.011145,-4.889047 2.586124,-7.595173 -0.02133,0.02309 -0.04206,0.04675 -0.06441,0.0691 -1.189578,1.189491 -3.442057,0.922806 -5.367305,-0.5152615 z"
     id="path1"
     style="stroke-width:1" />
</svg>

<?xml version="1.0" encoding="UTF-8"?>
<svg id="svg1" width="24" height="24" version="1.1" viewBox="0 0 26.182 26.182" xmlns="http://www.w3.org/2000/svg">
 <path id="path1" d="m23.014 2.6727-2.6638 0.88805-1.2477 1.8656c0.05806 0.043091 0.11437 0.089202 0.16678 0.14161l0.84928 0.84923c0.05231 0.052305 0.09816 0.10883 0.14119 0.16677l1.8666-1.2476zm-13.161 3.1106c-0.62093-0.0069448-1.2029 0.19792-1.632 0.62699l4.2925 4.2921 1.7758-1.7761-2.0914-2.0913c-0.68366-0.68361-1.5465-1.0429-2.3448-1.0518zm8.3359 0.21028c-0.16768 0-0.3353 0.064013-0.46325 0.19194-0.17972 0.18119-0.23815 0.45048-0.1493 0.6897l-15.394 15.349 0.00128 1.2834 1.2827 0.0017 15.346-15.399c0.23924 0.088852 0.50813 0.030845 0.68933-0.14886 0.25586-0.25586 0.25586-0.671 0-0.92686l-0.84928-0.84923c-0.12793-0.12793-0.29557-0.19194-0.46325-0.19194zm0.28152 3.6938-5.196 5.1956c1.4381 1.9252 1.7049 4.178 0.51528 5.3675-0.01911 0.01911-0.03964 0.03623-0.05929 0.0546 2.702 0.42404 5.544-0.54103 7.5856-2.5763 2.0417-2.0419 3.0111-4.889 2.5861-7.5952-0.02133 0.02309-0.04206 0.04675-0.06441 0.0691-1.1896 1.1895-3.4421 0.92281-5.3673-0.51526z"/>
</svg>
